build/images/g3.svg

<svg width="138" height="138" viewBox="0 0 138 138" fill="none" xmlns="http://www.w3.org/2000/svg">
<circle cx="69" cy="69" r="69" fill="#76BD5E"/>
<path d="M48.0312 39.9375V100.062C48.0326 101.289 48.5203 102.464 49.3874 103.331C50.2545 104.198 51.43 104.686 52.6562 104.688H88.5C89.7262 104.686 90.9018 104.198 91.7688 103.331C92.6359 102.464 93.1236 101.289 93.125 100.062V39.9375C93.1236 38.7113 92.6359 37.5357 91.7688 36.6687C90.9018 35.8016 89.7262 35.3139 88.5 35.3125H52.6562C51.43 35.3139 50.2545 35.8016 49.3874 36.6687C48.5203 37.5357 48.0326 38.7113 48.0312 39.9375ZM88.503 100.062H52.6562V39.9375H88.5L88.503 100.062Z" fill="white"/>
<path d="M64.2188 44.5625H78.0938V49.1875H64.2188V44.5625Z" fill="white"/>
<path d="M68.8438 89.6562H73.4688V94.2812H68.8438V89.6562Z" fill="white"/>
</svg>

<svg width="138" height="138" fill="none" xmlns="http://www.w3.org/2000/svg"><circle cx="69" cy="69" r="69" fill="#76BD5E"/><path d="M48.031 39.938v60.124a4.629 4.629 0 004.625 4.626H88.5a4.634 4.634 0 004.625-4.626V39.938a4.63 4.63 0 00-4.625-4.626H52.656a4.63 4.63 0 00-4.625 4.626zm40.472 60.124H52.656V39.938H88.5l.003 60.124z" fill="#fff"/><path d="M64.219 44.563h13.875v4.624H64.219v-4.624zm4.625 45.093h4.625v4.625h-4.625v-4.625z" fill="#fff"/></svg>
